X: 20582
T: OH! SAY. SIMPLE MAID.
T: FROM "INKLE AND YARICO."
C: Dr. Arnold.
Q: "Slow and with feeling."
%R: air, waltz
B: W. Hamilton "Universal Tune-Book" Vol. 2 Glasgow 1846 p.58 #2
S: http://s3-eu-west-1.amazonaws.com/itma.dl.printmaterial/book_pdfs/hamiltonvol2web.pdf
Z: 2016 John Chambers <jc:trillian.mit.edu>
M: 3/4
L: 1/8
K: G
% - - - - - - - - - - - - - - - - - - - - - - - - -
(GD) |\
D2E2G2 | G3cB2 | A3GA2 | B2G2E2 |\
D2E2G2 | G2(dc)(BA) | G3(ABA) | G2E2 |]\
D2 |\
c3dc2 | B3AG2 | A2A2A2 | A3Bd2 |\
g3fe2 | (ed)(cB)(AG) | G3 (ABG) | G2E2 |]
% - - - - - - - - - - - - - - - - - - - - - - - - -
